src/assets/fleet-icons/docs.svg

<svg width="20" height="20" viewBox="0 0 20 20" fill="none" xmlns="http://www.w3.org/2000/svg">
<path d="M10.0417 5.66667C10.0417 4.74619 10.7878 4 11.7083 4H15.25C15.7102 4 16.0833 4.3731 16.0833 4.83333V13.5833C16.0833 14.0436 15.7102 14.4167 15.25 14.4167H13.0891C12.205 14.4167 11.3572 14.7678 10.732 15.393L10.0417 16.0833M10.0417 5.66667V16.0833M10.0417 5.66667C10.0417 4.74619 9.2955 4 8.375 4H4.83333C4.3731 4 4 4.3731 4 4.83333V13.5833C4 14.0436 4.3731 14.4167 4.83333 14.4167H6.99429C7.87834 14.4167 8.72617 14.7678 9.35133 15.393L10.0417 16.0833" stroke="#656565" stroke-width="1.25" stroke-linecap="round" stroke-linejoin="round"/>
</svg>

<svg width="20" height="20" fill="none" xmlns="http://www.w3.org/2000/svg">
    <path
        d="M10.042 5.667c0-.92.746-1.667 1.666-1.667h3.542c.46 0 .833.373.833.833v8.75c0 .46-.373.834-.833.834h-2.16a3.33 3.33 0 0 0-2.358.976l-.69.69m0-10.416v10.416m0-10.416c0-.92-.746-1.667-1.667-1.667H4.833A.833.833 0 0 0 4 4.833v8.75c0 .46.373.834.833.834h2.161c.884 0 1.732.35 2.357.976l.69.69"
        stroke="#656565" stroke-width="1.25" stroke-linecap="round" stroke-linejoin="round" />
</svg>
